src/images/icons/picture.svg

<svg width="80" height="63" viewBox="0 0 80 63" fill="none" xmlns="http://www.w3.org/2000/svg">
<path d="M0.587445 11.527L8.74756 62.6248L79.3811 51.3449L71.221 0.24712L0.587445 11.527Z" fill="#EBF6F9"/>
<path d="M77.4189 48.9039L10.4858 59.9214L2.89844 13.4257L69.8332 2.4082L77.4189 48.9039Z" fill="#DBF0F5"/>
<path d="M75.3001 40.7143L64.7517 33.1503C64.7517 33.1503 61.6078 30.2342 59.219 30.766C57.0705 31.2476 54.9833 34.3797 54.59 34.9971L51.0538 32.4616C51.0538 32.4616 47.3673 29.0397 44.5691 29.667C41.7699 30.2926 39.0436 34.7828 39.0436 34.7828L38.2686 35.8612L31.6118 31.0855C31.6118 31.0855 27.0819 26.8813 23.6437 27.6501C20.2046 28.4186 16.8527 33.9395 16.8527 33.9395L8.81885 45.1379L11.1256 59.1056L76.5502 48.334L75.3001 40.7143Z" fill="#6CC077"/>
<path d="M42.3503 18.9842C42.3467 18.9077 42.3864 18.8348 42.371 18.7574C42.174 17.5657 40.7284 16.8133 39.1408 17.0733C38.933 17.1085 38.7583 17.1967 38.5647 17.2605C37.9859 16.706 37.0445 16.4046 36.0041 16.5757C34.6585 16.797 33.7108 17.7043 33.6153 18.6999C32.3517 19.1733 31.5091 20.1867 31.6828 21.2479C31.8483 22.2515 32.86 22.9346 34.112 23.0426C34.6718 23.8922 35.8959 24.3793 37.2523 24.1568C38.4817 23.9543 39.433 23.2324 39.7948 22.3693C40.1306 22.4235 40.4832 22.4287 40.8515 22.3677C42.2618 22.1372 43.2627 21.0913 43.09 20.032C43.019 19.5971 42.7273 19.2524 42.3503 18.9842Z" fill="#67B8CB"/>
<path d="M56.2359 19.4803C56.2169 19.4271 56.1738 19.3867 56.1656 19.3336C56.0271 18.4883 56.8298 17.6486 57.9567 17.4641C58.1061 17.4388 58.2439 17.4588 58.3861 17.4588C58.6497 16.952 59.2169 16.5344 59.9522 16.4139C60.9098 16.2546 61.7541 16.6506 62.0476 17.2986C63.0052 17.3311 63.8035 17.8206 63.925 18.5749C64.0439 19.2886 63.5147 19.978 62.7009 20.3371C62.5191 21.0337 61.8034 21.6423 60.8406 21.8006C59.9667 21.9446 59.1611 21.6735 58.7199 21.1785C58.5075 21.2892 58.2689 21.3738 58.0089 21.4171C57.0063 21.5826 56.0944 21.1066 55.9713 20.3542C55.9191 20.0465 56.0379 19.7485 56.2359 19.4803Z" fill="#67B8CB"/>
<path d="M44.9389 23.2018L45.0225 24.8155L46.0928 23.2969L45.9553 25.5962C46.758 26.2338 47.1564 29.2086 47.1564 29.2086C48.4644 32.8052 46.8801 33.1009 46.8801 33.1009C45.4044 33.3795 45.1297 31.5779 45.1297 31.5779C43.7686 31.1886 43.1875 29.8683 43.1875 29.8683C43.4428 31.8916 42.5172 34.3642 42.5172 34.3642C42.0917 35.8401 43.0958 36.3907 43.0958 36.3907C44.5031 38.5095 42.9239 41.2986 42.9239 41.2986C43.6161 41.5729 45.1251 43.2931 45.1251 43.2931C46.7706 44.1285 46.5155 46.0113 46.5155 46.0113C46.4039 48.8483 44.2257 50.9159 44.2257 50.9159C43.4489 52.9333 43.0073 51.1017 43.0073 51.1017C42.7776 49.2396 44.1916 49.6203 44.1916 49.6203C44.0648 49.1516 44.7106 48.4037 44.7106 48.4037C45.6892 46.6271 44.724 44.9285 44.724 44.9285C43.2486 43.7965 40.7472 43.0404 40.7472 43.0404C41.0032 44.3581 40.0878 48.6736 40.0878 48.6736C39.37 50.7351 40.32 52.326 40.32 52.326C40.8453 52.5705 41.4311 53.5674 41.4311 53.5674C41.6814 54.5053 40.0343 54.3759 40.0343 54.3759C38.8149 54.5618 39.3804 52.5775 39.3804 52.5775C38.1563 52.3834 38.7102 50.6725 38.7102 50.6725C39.1309 47.7334 38.2352 42.9353 38.2352 42.9353C36.1663 44.6606 29.6945 43.4806 29.6945 43.4806C29.9206 44.9633 29.5134 48.3336 29.5134 48.3336C30.1973 54.2481 33.4504 54.2411 33.4504 54.2411C34.4352 55.0121 32.9079 55.3008 32.9079 55.3008C31.3708 55.5352 31.237 54.309 31.237 54.309C30.1778 54.4705 28.694 50.7905 28.694 50.7905C27.1828 49.7751 27.3919 46.8681 27.3919 46.8681C26.8288 44.9468 25.3276 45.0674 25.3276 45.0674C25.1032 46.0767 21.9081 50.7416 21.9081 50.7416C21.0155 53.428 22.3971 56.0886 22.3971 56.0886C22.9017 57.2594 21.3197 56.8501 21.3197 56.8501C19.9107 56.1441 20.8451 55.5125 20.8451 55.5125C21.0095 55.1619 20.4788 54.5382 20.4788 54.5382C19.6493 53.3638 20.8558 50.2508 20.8558 50.2508C20.592 47.0913 21.6676 47.0346 21.6676 47.0346C22.9036 45.5452 22.1066 43.8761 22.1066 43.8761C20.5546 40.8056 21.2983 38.5744 21.2983 38.5744C19.4472 39.2368 19.9574 41.871 19.9574 41.871C19.9437 48.5429 17.0267 47.9033 17.0267 47.9033C18.8749 46.8628 17.5068 43.2204 17.5068 43.2204C16.6878 36.7824 21.8274 37.4083 21.8274 37.4083C23.0613 34.8336 27.7858 34.8735 27.7858 34.8735C28.928 35.2411 33.0402 34.833 33.0402 34.833C36.3063 33.847 37.9225 29.1532 37.9225 29.1532C40.4047 23.0256 44.003 24.9176 44.003 24.9176L44.9389 23.2018Z" fill="black"/>
</svg>

<svg width="80" height="63" fill="none" xmlns="http://www.w3.org/2000/svg"><path d="m.587 11.527 8.16 51.098 70.634-11.28L71.221.247.587 11.527z" fill="#EBF6F9"/><path d="M77.419 48.904 10.486 59.92 2.898 13.426 69.833 2.408l7.586 46.496z" fill="#DBF0F5"/><path d="M75.3 40.714 64.752 33.15s-3.144-2.916-5.533-2.384c-2.148.482-4.236 3.614-4.629 4.231l-3.536-2.535s-3.687-3.422-6.485-2.795c-2.8.626-5.525 5.116-5.525 5.116l-.775 1.078-6.657-4.775s-4.53-4.205-7.968-3.436c-3.44.769-6.791 6.29-6.791 6.29L8.819 45.138l2.307 13.968L76.55 48.334l-1.25-7.62z" fill="#6CC077"/><path d="M42.35 18.984c-.003-.076.036-.15.021-.227-.197-1.191-1.643-1.944-3.23-1.684-.208.035-.383.124-.576.188-.58-.555-1.52-.856-2.56-.685-1.347.221-2.294 1.128-2.39 2.124-1.263.473-2.106 1.487-1.932 2.548.165 1.003 1.177 1.687 2.429 1.795.56.85 1.784 1.336 3.14 1.114 1.23-.203 2.181-.925 2.543-1.788.336.055.688.06 1.056-.001 1.41-.23 2.412-1.277 2.239-2.336-.071-.435-.363-.78-.74-1.048zM56.236 19.48c-.02-.053-.062-.093-.07-.146-.139-.846.664-1.685 1.79-1.87.15-.025.288-.005.43-.005.264-.507.83-.925 1.566-1.045.958-.16 1.802.237 2.096.885.957.032 1.755.522 1.877 1.276.119.714-.41 1.403-1.224 1.762-.182.697-.898 1.305-1.86 1.464-.874.144-1.68-.127-2.121-.622-.212.11-.451.195-.711.238-1.003.166-1.915-.31-2.038-1.063-.052-.307.067-.605.265-.874z" fill="#67B8CB"/><path d="m44.939 23.202.084 1.613 1.07-1.518-.138 2.3c.803.637 1.201 3.612 1.201 3.612 1.308 3.596-.276 3.892-.276 3.892-1.476.279-1.75-1.523-1.75-1.523-1.361-.39-1.943-1.71-1.943-1.71.256 2.024-.67 4.496-.67 4.496-.425 1.476.579 2.027.579 2.027 1.407 2.119-.172 4.908-.172 4.908.692.274 2.201 1.994 2.201 1.994 1.646.836 1.39 2.718 1.39 2.718-.111 2.837-2.29 4.905-2.29 4.905-.776 2.017-1.218.186-1.218.186-.23-1.862 1.185-1.482 1.185-1.482-.127-.468.519-1.216.519-1.216.978-1.777.013-3.476.013-3.476-1.475-1.131-3.977-1.888-3.977-1.888.256 1.318-.66 5.634-.66 5.634-.717 2.061.233 3.652.233 3.652.525.245 1.111 1.241 1.111 1.241.25.938-1.397.809-1.397.809-1.22.186-.654-1.798-.654-1.798-1.224-.195-.67-1.906-.67-1.906.42-2.939-.475-7.737-.475-7.737-2.069 1.726-8.54.546-8.54.546.226 1.482-.182 4.853-.182 4.853.684 5.914 3.937 5.907 3.937 5.907.985.771-.542 1.06-.542 1.06-1.537.234-1.671-.992-1.671-.992-1.06.162-2.543-3.518-2.543-3.518-1.511-1.016-1.302-3.923-1.302-3.923-.563-1.921-2.064-1.8-2.064-1.8-.225 1.009-3.42 5.674-3.42 5.674-.893 2.686.49 5.347.49 5.347.504 1.17-1.078.761-1.078.761-1.41-.706-.475-1.337-.475-1.337.165-.351-.366-.975-.366-.975-.83-1.174.377-4.287.377-4.287-.264-3.16.812-3.216.812-3.216 1.236-1.49.439-3.159.439-3.159-1.552-3.07-.809-5.302-.809-5.302-1.85.663-1.34 3.297-1.34 3.297-.014 6.672-2.931 6.032-2.931 6.032 1.848-1.04.48-4.683.48-4.683-.82-6.438 4.32-5.812 4.32-5.812 1.234-2.574 5.959-2.535 5.959-2.535 1.142.368 5.254-.04 5.254-.04 3.266-.986 4.883-5.68 4.883-5.68 2.482-6.127 6.08-4.235 6.08-4.235l.936-1.716z" fill="#000"/></svg>
